X: 20338
T: John Brosnan's
R: reel
M: 4/4
K: Aminor
EAAE ABcd|ecde cBAG|EG~G2 EGDG|EG~G2 eGdG|
EAAE ABcd|ecde cBAG|~e2de ceBe|1 EAAG A3G:|2 EAAG ABcd||
|:eAAe EAcd|~e2ae gedg|eA~A2 eAge|~d2Bd GdBd|
eAAG ABcd|~e2ae gedB|~e2de ceBe|1 EAAG A2cd:|2 EAAG A3G||

